!!!COM: Unknown
!!!CDT: NA
!!!OTL: National Anthem, Kenya
!!!ENC: Davis, Matthew J.
!!Vocal Line Only
**kern
*clefG2
*k[]
*a:
*M4/4
=1-
4dd
==!|:2
4.dd
8dd
4cc
4g
=3
4a
2a
4dd
=4
4dd
8dd
8dd
4cc
4g
=5
4a
2.a
=6
8a
8a
8a
8a
8dd
4cc
8a
=7
4a
2g
8dd
8dd
=8
4cc
4g
8a
8a
4e
=9
4a
4g
8a
8a
4e
=10
4e
8a
8a
8a
8a
8g
8g
=11
!First and Second Ending
4a
2a
8dd
8dd
==:|!12
!Third Ending
4a
2a
==|!
*-
